public/img/filter/vegan.svg

<svg width="100" height="100" viewBox="0 0 100 100" fill="none" xmlns="http://www.w3.org/2000/svg">
<rect x="1" y="1" width="98" height="98" rx="14" stroke="#234cad" stroke-width="2"/>
<path d="M78 52.1305C78 48.1277 76.0592 44.305 72.8084 41.9055C72.1455 41.4145 71.3236 41.1452 70.4953 41.1452C69.4583 41.1452 68.4865 41.5598 67.7731 42.2649C67.6398 42.1537 67.5184 42.0314 67.3805 41.9257C66.8703 41.5359 66.258 41.3042 65.6292 41.2086L66.0346 36.7506C66.0438 36.644 66.0484 36.5364 66.0484 36.4289C66.0484 34.467 64.4524 32.871 62.4905 32.871H62.2515C60.2895 32.871 58.6935 34.467 58.6935 36.4289C58.6935 36.5364 58.6981 36.644 58.7083 36.7516L59.1155 41.2288C58.5327 41.3391 57.9691 41.5644 57.4929 41.9193C57.3283 42.0425 57.1821 42.184 57.024 42.3137C56.9422 42.2291 56.8558 42.15 56.7666 42.0737C56.819 41.7676 56.8548 41.4577 56.8548 41.1452C56.8548 39.9776 56.4908 38.8606 55.816 37.9274C56.4908 36.9943 56.8548 35.8782 56.8548 34.7097C56.8548 31.5618 54.1915 29.0106 51.0179 29.2037C50.4276 27.512 49.0514 26.2369 47.3597 25.745C46.24 24.3485 44.552 23.5735 42.7437 23.6875C41.9824 21.5059 39.9212 20 37.5484 20C35.558 20 33.7459 21.0646 32.7696 22.7608C30.3351 22.8426 28.2307 24.5609 27.6276 26.9016C24.7813 27.9635 22.8387 30.7188 22.8387 33.7903C22.8387 36.2533 24.0504 38.5048 26.0555 39.8654C25.7531 40.5559 25.5968 41.3024 25.5968 42.0645C25.5968 43.7194 26.3323 45.2574 27.5945 46.2991C27.4888 46.7256 27.4355 47.155 27.4355 47.5806C27.4355 50.3975 29.5592 52.729 32.2897 53.0572L34.3233 58.7526C33.2817 59.5203 32.3945 60.481 31.7114 61.5843L26.8949 60.5141C26.712 60.4718 26.5235 60.4516 26.3341 60.4516C24.9137 60.4516 23.7581 61.6072 23.7581 63.0276V63.3917C23.7581 63.6491 23.8077 63.8937 23.8785 64.129H23.7581C22.2375 64.129 21 65.3665 21 66.8871C21 68.4077 22.2375 69.6452 23.7581 69.6452H23.8785C23.8077 69.8805 23.7581 70.1251 23.7581 70.3825V70.7466C23.7581 72.167 24.9137 73.3226 26.3341 73.3226C26.5235 73.3226 26.712 73.3024 26.8931 73.261L31.7114 72.1899C33.4959 75.0712 36.6759 77 40.3065 77H40.5225C41.0337 77 41.5513 76.9605 42.0597 76.8823L73.5853 72.0327C76.1429 71.6383 78 69.4751 78 66.8871C78 64.8176 76.8021 63.0368 75.0185 62.1975C76.9234 59.9221 78 57.0353 78 54.063V52.1305ZM66.2626 43.3865C69.0069 45.4845 70.6452 48.8264 70.6452 52.3282V55.705C70.6452 57.5897 70.1754 59.4348 69.29 61.0814L61.9177 59.9469C61.6143 58.6129 61.4516 57.2504 61.4516 55.8824V52.1498C61.4516 51.2231 61.5445 50.2973 61.6851 49.3798C61.9104 49.3991 62.1347 49.4194 62.371 49.4194C64.992 49.4194 66.9677 48.2334 66.9677 46.6613C66.9677 45.7934 66.3674 45.023 65.3276 44.5174L65.4628 43.0298C65.7496 43.0878 66.0254 43.2036 66.2626 43.3865V43.3865ZM62.2515 34.7097H62.4914C63.4393 34.7097 64.2106 35.481 64.2106 36.4289C64.2106 36.4813 64.2088 36.5337 64.2032 36.5852L63.3685 45.7668L64.0699 45.992C64.8753 46.2494 65.129 46.5887 65.129 46.6613C65.129 46.8902 64.1508 47.5806 62.371 47.5806C60.5911 47.5806 59.6129 46.8902 59.6129 46.6613C59.6129 46.5887 59.8666 46.2494 60.672 45.9911L61.3735 45.7658L60.5387 36.5852C60.5341 36.5328 60.5323 36.4804 60.5323 36.4289C60.5323 35.481 61.3036 34.7097 62.2515 34.7097V34.7097ZM59.2819 43.0602L59.4143 44.5174C58.3745 45.023 57.7742 45.7934 57.7742 46.6613C57.7742 47.6744 58.6007 48.5211 59.885 48.9992C59.7205 50.0427 59.6129 51.0963 59.6129 52.1498V55.8824C59.6129 57.1456 59.7343 58.407 59.9696 59.6472L54.55 58.8133C54.2549 57.803 54.0968 56.7613 54.0968 55.7041V52.3273C54.0968 48.831 55.7774 45.49 58.5924 43.3921C58.7974 43.2395 59.0337 43.1273 59.2819 43.0602V43.0602ZM49.3465 58.0126C48.8473 56.7494 48.5806 55.4264 48.5806 54.063V52.1296C48.5806 48.7078 50.2428 45.4385 53.0257 43.3829C53.3751 43.1255 53.809 42.9839 54.2466 42.9839C54.8019 42.9839 55.3131 43.2073 55.6873 43.5815C53.5194 45.9571 52.2581 49.0774 52.2581 52.3282V55.705C52.2581 56.6528 52.3711 57.5906 52.5762 58.5099L49.3465 58.0126ZM49.4329 30.3896L49.6002 31.3356L50.538 31.127C50.823 31.0635 51.085 31.0323 51.3387 31.0323C53.3668 31.0323 55.0161 32.6816 55.0161 34.7097C55.0161 35.6759 54.641 36.5898 53.9607 37.283L53.3282 37.9274L53.9607 38.5719C54.641 39.2651 55.0161 40.1789 55.0161 41.1452C55.0161 41.1727 55.0106 41.2003 55.0106 41.2288C54.7615 41.1792 54.5077 41.1452 54.2466 41.1452C53.4183 41.1452 52.5964 41.4145 51.9335 41.9045C50.2603 43.1392 48.9429 44.7545 48.0493 46.574C47.7008 45.4891 47.3349 44.4502 46.958 43.4638C47.8084 38.9718 50.9627 36.3719 50.9949 36.3452L50.4194 35.629L49.8448 34.911C49.717 35.0131 47.2301 37.0439 45.8336 40.7075C43.9204 36.3149 42.1148 33.4731 41.999 33.293L40.4517 34.2877C40.4765 34.3254 41.8785 36.5309 43.5104 40.0419C40.7606 39.0067 37.6357 39.2927 37.4565 39.311L37.6394 41.1406C39.0221 41.0017 42.9386 41.0689 44.7681 42.9361C45.4125 44.5201 46.0478 46.2568 46.6086 48.1175C43.8138 46.6843 40.4793 46.6613 40.3065 46.6613V48.5C40.3497 48.5 44.4426 48.5276 46.8651 50.4536C46.7897 51.0071 46.7419 51.5661 46.7419 52.1305V54.0639C46.7419 55.306 46.9332 56.5205 47.288 57.6972L42.0597 56.8928C41.7839 56.8505 41.5053 56.822 41.2258 56.8018C39.1977 56.8018 37.5484 55.1396 37.5484 53.0977C37.5484 52.6693 37.6339 52.2298 37.8012 51.7895L38.0697 51.0861L37.4325 50.6835C36.3541 50.0013 35.7097 48.842 35.7097 47.5806C35.7097 46.8571 35.922 46.1556 36.3238 45.5507L36.8966 44.6902L35.9754 44.2222C34.11 43.2735 32.9516 41.3906 32.9516 39.3065C32.9516 36.86 34.5954 34.6812 36.9499 34.0073L37.5208 33.8436L37.6063 33.2562C37.8683 31.4644 39.4248 30.1129 41.2258 30.1129C41.2598 30.1129 41.2929 30.1203 41.326 30.1249C41.3904 30.134 41.4556 30.1423 41.5209 30.1469L42.1801 30.2002L42.4394 29.5916C43.0195 28.2328 44.347 27.3548 45.8226 27.3548C47.6043 27.3548 49.1221 28.6309 49.4329 30.3896V30.3896ZM33.5998 51.2581H32.9516C30.9235 51.2581 29.2742 49.6087 29.2742 47.5806C29.2742 47.1513 29.3597 46.7119 29.527 46.2733L29.7964 45.57L29.1593 45.1673C28.08 44.4852 27.4355 43.3259 27.4355 42.0645C27.4355 41.341 27.6479 40.6395 28.0496 40.0346L28.6224 39.1741L27.7012 38.7061C25.8358 37.7573 24.6774 35.8745 24.6774 33.7903C24.6774 31.3439 26.3212 29.165 28.6748 28.4912L29.2457 28.3275L29.3312 27.74C29.5941 25.9482 31.1506 24.5968 32.9516 24.5968C32.9865 24.5968 33.0206 24.6041 33.0546 24.6087C33.1171 24.617 33.1796 24.6253 33.244 24.6308L33.9059 24.686L34.1661 24.0746C34.7453 22.7167 36.0728 21.8387 37.5484 21.8387C39.3301 21.8387 40.848 23.1148 41.1587 24.8735L41.326 25.8195L42.2638 25.6108C42.5488 25.5474 42.8108 25.5161 43.0645 25.5161C43.4874 25.5161 43.8892 25.609 44.2735 25.7432C42.922 26.1385 41.7581 27.0358 41.0438 28.277C38.6093 28.3588 36.5049 30.077 35.9018 32.4177C33.0555 33.4796 31.1129 36.2349 31.1129 39.3065C31.1129 41.7694 32.3246 44.0209 34.3297 45.3815C34.0273 46.072 33.871 46.8185 33.871 47.5806C33.871 49.2355 34.6065 50.7736 35.8687 51.8161C35.763 52.2427 35.7097 52.6711 35.7097 53.0968C35.7097 54.7121 36.4047 56.1637 37.5052 57.1769C36.9591 57.335 36.4341 57.54 35.9303 57.7836L33.5998 51.2581ZM25.5968 63.3917V63.0276C25.5968 62.5661 26.0436 62.2103 26.495 62.3078L30.8702 63.2805C30.7635 63.5581 30.6679 63.8404 30.5861 64.129H26.3341C25.9277 64.129 25.5968 63.7981 25.5968 63.3917V63.3917ZM22.8387 66.8871C22.8387 66.3805 23.2515 65.9677 23.7581 65.9677H26.3341H30.2395C30.2129 66.2711 30.1935 66.5764 30.1935 66.8871C30.1935 67.1978 30.2129 67.5031 30.2404 67.8065H26.3341H23.7581C23.2515 67.8065 22.8387 67.3937 22.8387 66.8871V66.8871ZM26.4931 71.4664C26.0574 71.5602 25.5968 71.2071 25.5968 70.7466V70.3825C25.5968 69.9761 25.9277 69.6452 26.3341 69.6452H30.5852C30.667 69.9338 30.7635 70.2161 30.8693 70.4937L26.4931 71.4664ZM76.1613 66.8871C76.1613 68.5612 74.9606 69.9605 73.3067 70.2152L41.782 75.0648C41.3646 75.1291 40.9408 75.1613 40.5225 75.1613H40.3065C35.7446 75.1613 32.0323 71.4489 32.0323 66.8871C32.0323 62.3253 35.7446 58.6129 40.3065 58.6129H40.5225C40.9408 58.6129 41.3646 58.6451 41.7811 58.7085L73.3058 63.5581C74.9606 63.8137 76.1613 65.213 76.1613 66.8871V66.8871ZM76.1613 54.063C76.1613 56.891 75.0167 59.627 73.0254 61.655L71.1986 61.3737C72.038 59.6104 72.4839 57.677 72.4839 55.7041V52.3273C72.4839 49.0599 71.2391 45.924 69.1006 43.5447C69.4721 43.1944 69.9648 42.9839 70.4953 42.9839C70.9338 42.9839 71.3669 43.1255 71.7162 43.3847C74.4991 45.4385 76.1613 48.7087 76.1613 52.1305V54.063Z" fill="#234cad"/>
<path d="M39.3871 62.2903H41.2258V71.4838H39.3871V62.2903Z" fill="#234cad"/>
<path d="M46.7419 62.2903H48.5807V71.4838H46.7419V62.2903Z" fill="#234cad"/>
<path d="M54.0968 62.2903H55.9355V71.4838H54.0968V62.2903Z" fill="#234cad"/>
<path d="M61.4517 64.129H63.2904V69.6452H61.4517V64.129Z" fill="#234cad"/>
<path d="M68.8064 65.0483H70.6451V68.7258H68.8064V65.0483Z" fill="#234cad"/>
</svg>

<svg width="60" height="60" viewBox="0 0 100 100" fill="none" xmlns="http://www.w3.org/2000/svg">
  <rect x="1" y="1" width="98" height="98" rx="14" stroke="#234cad" stroke-width="2"/>
  <path d="M78 52.13c0-4-1.94-7.83-5.2-10.22a3.91 3.91 0 00-5.03.35c-.13-.1-.25-.23-.39-.33a3.82 3.82 0 00-1.75-.72l.4-4.46.02-.32c0-1.96-1.6-3.56-3.56-3.56h-.24a3.56 3.56 0 00-3.54 3.88l.4 4.48c-.58.1-1.14.33-1.62.69-.16.12-.3.26-.47.4a3.72 3.72 0 00-.25-.25 5.47 5.47 0 00-.95-4.15 5.52 5.52 0 00-4.8-8.72 5.5 5.5 0 00-3.66-3.45 5.44 5.44 0 00-4.62-2.06 5.5 5.5 0 00-9.97-.93 5.54 5.54 0 00-5.14 4.14 7.39 7.39 0 00-4.8 6.89 7.31 7.31 0 003.23 6.08 5.47 5.47 0 001.53 6.43 5.53 5.53 0 004.7 6.76l2.03 5.7a10.17 10.17 0 00-2.6 2.82l-4.83-1.07a2.58 2.58 0 00-3.14 2.51v.37c0 .26.06.5.13.74h-.12a2.76 2.76 0 000 5.52h.12c-.07.23-.12.48-.12.73v.37a2.58 2.58 0 003.13 2.51l4.82-1.07a10.1 10.1 0 008.6 4.81h.21c.51 0 1.03-.04 1.54-.12l31.53-4.85a5.18 5.18 0 001.43-9.83A12.72 12.72 0 0078 54.06v-1.93zm-11.74-8.74a11.3 11.3 0 014.39 8.94v3.38c0 1.88-.47 3.72-1.36 5.37l-7.37-1.13c-.3-1.34-.47-2.7-.47-4.07v-3.73c0-.93.1-1.85.24-2.77.22.02.44.04.68.04 2.62 0 4.6-1.19 4.6-2.76 0-.87-.6-1.64-1.64-2.14l.13-1.49c.29.06.57.17.8.36zm-4-8.68h.23a1.72 1.72 0 011.71 1.88l-.83 9.18.7.22c.8.26 1.06.6 1.06.67 0 .23-.98.92-2.76.92-1.78 0-2.76-.69-2.76-.92 0-.07.26-.41 1.06-.67l.7-.22-.83-9.18v-.16c0-.95.76-1.72 1.71-1.72zm-2.98 8.35l.13 1.46c-1.04.5-1.64 1.27-1.64 2.14 0 1.01.83 1.86 2.11 2.34-.16 1.04-.27 2.1-.27 3.15v3.73c0 1.27.12 2.53.36 3.77l-5.42-.84c-.3-1-.45-2.05-.45-3.1v-3.38c0-3.5 1.68-6.84 4.5-8.94.2-.15.43-.26.68-.33zm-9.93 14.95a10.7 10.7 0 01-.77-3.95v-1.93c0-3.42 1.66-6.7 4.45-8.75a2.03 2.03 0 012.66.2 13.02 13.02 0 00-3.43 8.75v3.38c0 .94.11 1.88.32 2.8l-3.23-.5zm.08-27.62l.17.95.94-.21a3.66 3.66 0 013.42 6.15l-.63.65.63.64c.68.7 1.06 1.6 1.06 2.58v.08a3.92 3.92 0 00-3.08.68c-1.68 1.23-3 2.84-3.9 4.66a60.95 60.95 0 00-1.08-3.1c.85-4.5 4-7.1 4.03-7.12l-.57-.72-.58-.72c-.12.1-2.61 2.13-4 5.8A57.13 57.13 0 0042 33.29l-1.55 1c.03.04 1.43 2.24 3.06 5.75a15.15 15.15 0 00-6.05-.73l.18 1.83c1.38-.14 5.3-.07 7.13 1.8a58.77 58.77 0 011.84 5.18 15.56 15.56 0 00-6.3-1.46v1.84c.04 0 4.13.03 6.56 1.95-.08.56-.13 1.12-.13 1.68v1.93c0 1.25.2 2.46.55 3.64l-5.23-.8c-.28-.05-.55-.08-.83-.1a3.7 3.7 0 01-3.43-5.01l.27-.7-.64-.4a3.66 3.66 0 01-1.1-5.14l.57-.86-.92-.47a5.5 5.5 0 01.97-10.21l.57-.17.09-.58a3.69 3.69 0 013.62-3.15l.1.01.2.03.65.05.26-.6a3.67 3.67 0 017 .79zM33.6 51.26h-.65a3.68 3.68 0 01-3.42-4.99l.27-.7-.64-.4a3.66 3.66 0 01-1.11-5.14l.57-.86-.92-.46a5.5 5.5 0 01.97-10.22l.58-.16.08-.59a3.69 3.69 0 013.62-3.14h.1c.07.02.13.03.2.03l.66.06.26-.62a3.67 3.67 0 016.99.8l.17.95.93-.2c.29-.07.55-.1.8-.1.43 0 .83.09 1.21.22a5.5 5.5 0 00-3.23 2.54 5.54 5.54 0 00-5.14 4.14 7.39 7.39 0 00-4.79 6.89 7.31 7.31 0 003.22 6.07 5.47 5.47 0 001.54 6.44 5.53 5.53 0 001.64 5.36c-.55.16-1.08.36-1.58.6l-2.33-6.52zm-8 12.13v-.36c0-.46.44-.82.9-.72l4.37.97c-.1.28-.2.56-.28.85h-4.26a.74.74 0 01-.73-.74zm-2.76 3.5c0-.51.41-.92.92-.92h6.48a10.5 10.5 0 000 1.84h-6.48a.92.92 0 01-.92-.92zm3.65 4.58a.76.76 0 01-.9-.72v-.37c0-.4.34-.73.74-.73h4.26c.08.28.17.57.28.84l-4.38.98zm49.67-4.58c0 1.67-1.2 3.07-2.85 3.33l-31.53 4.84c-.42.07-.84.1-1.26.1h-.21a8.28 8.28 0 010-16.55h.21c.42 0 .84.04 1.26.1l31.53 4.85a3.35 3.35 0 012.85 3.33zm0-12.83c0 2.83-1.14 5.57-3.13 7.6l-1.83-.29c.84-1.76 1.28-3.7 1.28-5.67v-3.37c0-3.27-1.24-6.4-3.38-8.79a2.03 2.03 0 012.62-.16 10.93 10.93 0 014.44 8.75v1.93z" fill="#234cad"/>
  <path d="M39.39 62.29h1.84v9.2h-1.84v-9.2zM46.74 62.29h1.84v9.2h-1.84v-9.2zM54.1 62.29h1.84v9.2H54.1v-9.2zM61.45 64.13h1.84v5.52h-1.84v-5.52zM68.8 65.05h1.85v3.68H68.8v-3.68z" fill="#234cad"/>
</svg>
